X:1
T:Bottle of Whisky, The
T:Bottle of Whisky, The
T:Duncan MacIntyre
C:Duncan MacIntyre
L:1/8
M:6/8
K:D
V:1 treble 
V:1
 Ddd ddd | e=ce efg | fdd ddd | Td>ef Te>fg | (af)d Ddd | e=ce (ef)g | (fd).f (ec).e | %7
 (e/d/)(c/B/)(A/G/) (F/A/G/F/).G/.E/ | Ddd ddd | e=ce (ef)g | fdd ddd | Td>ef Te>fg | (af).d Ddd | %13
 e=ce efg | .f(df) e(ce) | dAF D2 || f/g/ | (af).d (d'f).d | (ge).=c efg | afd d'fd | afd (ab).c' | %21
 d'fd afd | ge=c efg | (af).d (ge).c | Td3 D2 (f/g/) | afd d'fd | ge=c efg | afd d'fd | afd abc' | %29
 Td'/c'/d'/e'/f'/d'/ e'/c'/d'/b/a/f/(ge).=c efg | (fd).f (ge).g |{fg} a2 (A/4G/4F/4E/4) D3 || %32

